digitransit-component/packages/digitransit-component-icon/src/assets/search-airplane-digitransit.svg

<svg width="24" height="24" viewBox="0 0 28 28" xmlns="http://www.w3.org/2000/svg">
    <path d="M25.1997 28H2.8003C1.25347 28 0 26.7465 0 25.2007V2.8003C0 1.25347 1.25347 0 2.8003 0H25.1997C26.7465 0 28 1.25347 28 2.8003V25.2007C27.999 26.7465 26.7455 28 25.1997 28Z" />
    <path d="M23.9176 4.0824C23.0869 3.2517 20.576 4.41627 19.7453 5.24697L15.6214 9.37087L5.62035 8.09666C5.19759 8.04233 4.77286 8.18753 4.47159 8.48979L3.20331 9.75807L10.9305 14.6386L7.82404 18.1274L4.52098 18.2074C4.21774 18.2143 4.07155 18.5817 4.28589 18.7961L9.20394 23.7141C9.41828 23.9285 9.78474 23.7813 9.79264 23.479L9.87265 20.176L13.3614 17.0695L18.2419 24.7967L19.5102 23.5284C19.8115 23.2271 19.9567 22.8024 19.9033 22.3797L18.6301 12.3776L22.754 8.25371C23.5837 7.42399 24.7483 4.91311 23.9176 4.0824Z" fill="white"/>
</svg>

<svg xmlns="http://www.w3.org/2000/svg" width="24" height="24" viewBox="0 0 28 28">
 <path d="M25.2 28H2.8A2.8 2.8 0 0 1 0 25.2V2.8A2.8 2.8 0 0 1 2.8 0h22.4A2.8 2.8 0 0 1 28 2.8v22.4a2.8 2.8 0 0 1-2.8 2.8"/>
 <path fill="#fff" d="M23.918 4.082c-.831-.83-3.342.334-4.173 1.165l-4.124 4.124-10-1.274a1.38 1.38 0 0 0-1.15.393L3.204 9.758l7.728 4.88-3.107 3.49-3.303.08a.345.345 0 0 0-.235.588l4.918 4.918c.214.215.58.067.589-.235l.08-3.303 3.488-3.106 4.88 7.727 1.27-1.269a1.38 1.38 0 0 0 .392-1.148L18.63 12.378l4.124-4.124c.83-.83 1.994-3.34 1.164-4.172"/>
</svg>
